ccss_backup/CRT.ccss
CCSS   

DESCRIPTOR "CCSS for CRT"
ORIGINATOR "Argyll ccxxmake"
CREATED "Wed Aug 31 22:46:24 2011"
KEYWORD "DISPLAY"
DISPLAY "Hitachi CM2112MET, Diamond View 1772ie"
KEYWORD "TECHNOLOGY"
TECHNOLOGY "CRT"
KEYWORD "DISPLAY_TYPE_REFRESH"
DISPLAY_TYPE_REFRESH "NO"
KEYWORD "SPECTRAL_BANDS"
SPECTRAL_BANDS "118"
KEYWORD "SPECTRAL_START_NM"
SPECTRAL_START_NM "350.000000"
KEYWORD "SPECTRAL_END_NM"
SPECTRAL_END_NM "740.000000"

NUMBER_OF_FIELDS 119
BEGIN_DATA_FORMAT
SAMPLE_ID SPEC_350 SPEC_353 SPEC_357 SPEC_360 SPEC_363 SPEC_367 SPEC_370 SPEC_373 SPEC_377 SPEC_380 SPEC_383 SPEC_387 SPEC_390 SPEC_393 SPEC_397 SPEC_400 SPEC_403 SPEC_407 SPEC_410 SPEC_413 SPEC_417 SPEC_420 SPEC_423 SPEC_427 SPEC_430 SPEC_433 SPEC_437 SPEC_440 SPEC_443 SPEC_447 SPEC_450 SPEC_453 SPEC_457 SPEC_460 SPEC_463 SPEC_467 SPEC_470 SPEC_473 SPEC_477 SPEC_480 SPEC_483 SPEC_487 SPEC_490 SPEC_493 SPEC_497 SPEC_500 SPEC_503 SPEC_507 SPEC_510 SPEC_513 SPEC_517 SPEC_520 SPEC_523 SPEC_527 SPEC_530 SPEC_533 SPEC_537 SPEC_540 SPEC_543 SPEC_547 SPEC_550 SPEC_553 SPEC_557 SPEC_560 SPEC_563 SPEC_567 SPEC_570 SPEC_573 SPEC_577 SPEC_580 SPEC_583 SPEC_587 SPEC_590 SPEC_593 SPEC_597 SPEC_600 SPEC_603 SPEC_607 SPEC_610 SPEC_613 SPEC_617 SPEC_620 SPEC_623 SPEC_627 SPEC_630 SPEC_633 SPEC_637 SPEC_640 SPEC_643 SPEC_647 SPEC_650 SPEC_653 SPEC_657 SPEC_660 SPEC_663 SPEC_667 SPEC_670 SPEC_673 SPEC_677 SPEC_680 SPEC_683 SPEC_687 SPEC_690 SPEC_693 SPEC_697 SPEC_700 SPEC_703 SPEC_707 SPEC_710 SPEC_713 SPEC_717 SPEC_720 SPEC_723 SPEC_727 SPEC_730 SPEC_733 SPEC_737 SPEC_740 
END_DATA_FORMAT

NUMBER_OF_SETS 14
BEGIN_DATA
1 -7.3700e-04 6.1095e-03 0.020354 0.011089 -0.014952 -0.015479 -0.020888 0.027670 -0.027287 0.010601 4.2205e-03 -0.017912 -8.1306e-03 4.5454e-03 -7.3271e-03 -4.0405e-03 0.024777 0.032952 0.064311 0.063862 0.057954 0.10684 0.13254 0.16127 0.18654 0.21677 0.25272 0.26655 0.29312 0.30823 0.31529 0.32202 0.29030 0.29707 0.30249 0.30359 0.32619 0.30877 0.27962 0.26530 0.24185 0.24539 0.29581 0.34715 0.39553 0.39491 0.32338 0.25875 0.30497 0.52190 0.55100 0.39806 0.29395 0.28863 0.33812 0.43367 0.84770 1.5588 1.4688 0.78170 0.47425 0.58771 0.86740 0.79104 0.50757 0.43964 0.40264 0.34495 0.37491 0.74227 1.7837 3.4401 4.0819 5.0589 6.5397 4.6700 1.4797 1.1370 1.8928 6.1931 15.071 18.401 27.859 48.762 44.830 17.634 4.0753 1.2994 0.59734 0.43588 0.35368 0.36829 0.40927 0.36990 0.32213 0.32840 0.42884 0.54795 0.51201 0.42537 0.76886 1.5324 1.5464 1.1802 1.6755 4.2219 12.545 22.218 18.635 6.5901 0.73773 0.34854 0.27621 0.25350 0.20876 0.14641 0.16087 0.17191 
2 -2.4493e-03 0.021567 0.054497 0.023205 0.019870 0.063323 0.044675 0.053733 0.016618 0.038352 0.020519 0.021606 0.019095 0.012931 0.031764 0.044953 0.056768 0.060961 0.064268 0.074291 0.095784 0.13581 0.16558 0.18438 0.22416 0.27177 0.31740 0.36627 0.40037 0.44618 0.49044 0.53016 0.56820 0.65256 0.75017 0.88415 1.0849 1.3594 1.7265 2.1976 2.7794 3.5345 4.4413 5.4169 6.4809 7.6474 8.8551 9.9726 10.935 11.814 12.759 13.608 14.022 14.324 14.831 15.256 15.394 15.263 14.893 14.377 13.861 13.284 12.422 11.341 10.329 9.3851 8.3414 7.2985 6.4383 5.7180 5.0684 4.4692 3.9615 3.5435 3.1881 2.7663 2.3521 2.0733 1.8620 1.7527 1.7794 1.6929 1.8051 2.2423 2.0107 1.1558 0.71531 0.55855 0.46204 0.42080 0.35185 0.30212 0.26598 0.25609 0.25139 0.25151 0.20103 0.19451 0.16380 0.16465 0.17406 0.17408 0.16916 0.17716 0.22784 0.28489 0.52887 0.79378 0.70727 0.36607 0.22348 0.19336 0.16239 0.18587 0.21809 0.25263 0.25801 0.21398 
3 -3.0028e-03 0.025209 0.078741 0.047349 -5.6730e-03 0.051147 0.023143 0.046124 0.041976 0.046679 2.4038e-03 4.4094e-03 0.028173 0.042252 0.051262 0.050293 0.048719 0.061859 0.089619 0.12025 0.14885 0.19829 0.26031 0.31910 0.40649 0.47843 0.53883 0.61313 0.66384 0.72701 0.78650 0.80945 0.86159 0.93696 1.0181 1.1684 1.3888 1.6370 1.9777 2.4423 2.9885 3.7391 4.6841 5.7011 6.8072 7.9594 9.0734 10.126 11.154 12.165 13.139 13.755 14.028 14.323 14.862 15.389 15.943 16.501 16.053 14.875 14.062 13.604 13.044 11.895 10.599 9.6142 8.5721 7.4996 6.6716 6.3370 6.7305 7.7882 7.8986 8.4440 9.5222 7.2856 3.7489 3.1147 3.6696 7.7661 16.442 19.607 28.910 49.669 45.608 18.306 4.6380 1.8015 1.0356 0.82630 0.68474 0.62193 0.65342 0.61600 0.52413 0.52215 0.57743 0.68820 0.63334 0.52266 0.92521 1.6558 1.6864 1.2909 1.7999 4.2448 12.632 22.410 18.792 6.7354 0.83797 0.40737 0.41943 0.41237 0.38109 0.34629 0.27222 0.18790 
4 -1.1368e-03 8.7317e-03 0.037091 0.033352 7.9502e-03 0.074724 0.057022 0.085936 0.11924 0.17141 0.25849 0.36967 0.52277 0.74478 0.99210 1.2880 1.6315 2.0437 2.6240 3.3827 4.3601 5.6089 7.1227 8.8386 10.712 12.541 14.150 15.523 16.465 17.120 17.401 17.146 16.568 15.822 14.933 13.909 12.909 11.922 10.874 9.8039 8.7005 7.7302 6.8910 6.0031 5.1519 4.3953 3.7315 3.1433 2.6142 2.1763 1.8225 1.5358 1.2796 1.0760 0.92209 0.80122 0.70911 0.63347 0.55076 0.47010 0.41522 0.37928 0.34798 0.30440 0.26669 0.23800 0.20130 0.16902 0.14893 0.12905 0.12879 0.14397 0.15014 0.15730 0.15974 0.13569 0.086498 0.089819 0.099452 0.14771 0.25712 0.29124 0.42187 0.69645 0.65229 0.30073 0.12243 0.077598 0.073020 0.094930 0.10403 0.093978 0.086995 0.13438 0.13641 0.13705 0.13657 0.18451 0.16483 0.15674 0.15712 0.14541 0.15869 0.13660 0.14607 0.18591 0.35565 0.51347 0.48610 0.25682 0.11789 0.11814 0.098212 0.068700 0.10601 0.077454 0.094982 0.10982 
5 -2.2226e-03 0.020571 0.041058 -2.7634e-03 -0.011584 -7.8557e-03 0.032369 0.054281 0.095994 0.17359 0.26377 0.38957 0.52887 0.74869 0.99436 1.2890 1.6141 2.0437 2.6310 3.3734 4.3548 5.5941 7.0890 8.7769 10.622 12.467 14.094 15.482 16.480 17.161 17.469 17.215 16.637 15.896 15.016 14.025 13.036 12.070 11.008 9.9281 8.8113 7.8644 7.0851 6.2536 5.4619 4.7374 3.9923 3.3645 2.8930 2.6379 2.3357 1.8892 1.5317 1.3146 1.2128 1.1996 1.5280 2.1507 1.9742 1.2177 0.86241 0.93313 1.1819 1.0672 0.73378 0.63309 0.58601 0.48253 0.48543 0.84379 1.8909 3.5855 4.2175 5.1864 6.6537 4.7764 1.5429 1.1764 1.9564 6.2869 15.197 18.555 28.051 48.956 44.959 17.704 4.1197 1.3703 0.65604 0.51775 0.42091 0.42665 0.49014 0.45893 0.42404 0.45564 0.52296 0.66426 0.61818 0.48217 0.87114 1.6147 1.6473 1.2541 1.7183 4.2347 12.613 22.356 18.787 6.6579 0.76160 0.40378 0.33627 0.29396 0.27160 0.18503 0.13327 0.13244 
6 -4.2548e-03 0.034747 0.11666 0.11900 0.081282 0.071189 0.066498 0.10725 0.13639 0.19829 0.26744 0.39534 0.54733 0.75213 1.0100 1.3181 1.6731 2.0926 2.6703 3.4246 4.4063 5.6613 7.1697 8.8888 10.782 12.632 14.268 15.652 16.640 17.309 17.640 17.420 16.895 16.233 15.460 14.597 13.800 13.112 12.445 11.854 11.356 11.155 11.233 11.341 11.551 11.963 12.526 13.047 13.489 13.868 14.454 14.959 15.079 15.163 15.479 15.756 15.755 15.537 15.088 14.503 13.947 13.350 12.484 11.379 10.335 9.3897 8.3343 7.2800 6.4208 5.7058 5.0641 4.4933 3.9964 3.5862 3.2526 2.8152 2.3621 2.1073 1.8881 1.8335 1.9753 1.9294 2.1395 2.8184 2.5520 1.4044 0.80205 0.60486 0.50602 0.47270 0.42625 0.38338 0.33918 0.36632 0.34227 0.31604 0.29442 0.31916 0.31319 0.29496 0.30266 0.30052 0.29051 0.26534 0.29669 0.40323 0.76418 1.1948 1.0572 0.54035 0.26406 0.23523 0.20553 0.23956 0.26220 0.26412 0.25833 0.25881 
7 -6.1567e-03 0.046578 0.20350 0.23369 0.096015 0.21914 0.19183 0.22443 0.28301 0.44517 0.57975 0.82101 1.1237 1.5355 2.0487 2.6132 3.2808 4.1530 5.2895 6.7583 8.7317 11.213 14.164 17.507 21.196 24.842 28.074 30.853 32.721 34.118 34.783 34.374 33.302 32.015 30.518 28.856 27.364 26.029 24.687 23.482 22.488 22.114 22.375 22.667 23.196 24.039 24.969 25.893 26.884 28.033 29.229 29.943 30.002 30.175 30.929 31.737 32.617 33.589 32.527 30.083 28.399 27.418 26.244 23.948 21.346 19.331 17.227 15.037 13.390 12.728 13.489 15.586 15.777 16.889 19.059 14.603 7.5120 6.2714 7.3827 15.597 33.037 39.408 58.173 100.00 91.893 36.932 9.4472 3.7485 2.1941 1.7503 1.5411 1.3912 1.4333 1.4455 1.3057 1.2738 1.4218 1.6386 1.5111 1.2973 2.0050 3.5094 3.6047 2.8114 3.7529 8.8795 26.089 46.025 38.563 13.882 1.8645 1.1260 0.96853 0.82897 0.82685 0.80802 0.79237 0.75046 
8 -3.0243e-003 0.021963 0.10572 0.15818 0.086760 -2.2270e-003 0.013776 0.12474 0.032279 0.057171 -6.7098e-003 0.014431 0.051666 0.015062 0.036417 0.080134 0.10473 0.10493 0.13533 0.15081 0.13670 0.17271 0.22562 0.25312 0.28423 0.34783 0.36887 0.36716 0.40319 0.40719 0.39590 0.40184 0.37547 0.35142 0.36940 0.43590 0.48253 0.46133 0.38222 0.33422 0.29552 0.34283 0.46555 0.52325 0.64655 0.64990 0.41709 0.33820 0.47861 0.78870 0.86320 0.54510 0.35908 0.36006 0.42539 0.55946 1.0962 2.0405 1.8904 0.97393 0.58505 0.69035 0.99079 0.90243 0.62042 0.56242 0.53268 0.47398 0.48895 0.88852 2.0320 3.4805 3.8943 5.3733 7.3099 5.2596 1.7975 1.5319 2.3679 6.6826 15.451 18.618 28.017 48.672 44.305 17.193 3.9595 1.3712 0.77892 0.67565 0.54782 0.53111 0.63456 0.66363 0.50958 0.43008 0.53407 0.62899 0.61791 0.54333 1.0493 2.1288 2.2176 1.7526 2.4695 6.1417 18.268 32.150 26.824 9.5492 1.2661 0.71686 0.73545 0.75076 0.70875 0.58500 0.56398 0.46740 
9 3.1411e-004 -4.3065e-003 6.7770e-003 0.029770 -3.8142e-003 -0.014539 -0.021943 0.038745 8.2185e-003 0.048000 -0.014007 5.6365e-003 0.014422 0.031985 0.058386 0.063306 0.070400 0.083127 0.11748 0.12364 0.12066 0.16501 0.20468 0.23858 0.29343 0.35767 0.37299 0.41052 0.46600 0.48584 0.52273 0.56663 0.59468 0.65937 0.73336 0.87801 1.0536 1.3333 1.7010 2.1522 2.7313 3.4798 4.3641 5.2799 6.2810 7.3831 8.4797 9.5071 10.387 11.115 11.916 12.596 12.906 13.099 13.451 13.744 13.756 13.605 13.306 12.922 12.579 12.206 11.580 10.724 9.9165 9.1298 8.1707 7.1681 6.2977 5.5549 4.8247 4.1330 3.5616 3.1257 2.7447 2.3821 2.0759 1.8075 1.5643 1.4105 1.2781 1.1490 1.0880 1.1309 0.97991 0.64160 0.48702 0.42041 0.38289 0.31928 0.25639 0.20914 0.20041 0.21606 0.18762 0.16854 0.16316 0.17769 0.18872 0.19560 0.17368 0.18057 0.19752 0.23601 0.23641 0.25333 0.38237 0.50747 0.50476 0.38217 0.31891 0.29606 0.30800 0.39872 0.45122 0.42287 0.45432 0.41564 
10 -1.8536e-003 0.014156 0.057644 0.091021 0.072453 -0.017848 0.014141 0.033066 0.10668 0.068976 8.9062e-003 0.026244 0.072843 0.089121 0.11664 0.12514 0.12049 0.16042 0.21348 0.23141 0.26155 0.32497 0.39567 0.46032 0.53433 0.64585 0.70972 0.74796 0.80912 0.83152 0.87857 0.92129 0.92994 0.98411 1.0821 1.2682 1.5380 1.7932 2.0980 2.5074 3.0341 3.8133 4.8058 5.7992 6.9220 8.0307 8.9372 9.8722 10.871 11.925 12.819 13.216 13.331 13.507 13.907 14.345 14.936 15.716 15.250 13.968 13.232 12.959 12.624 11.687 10.563 9.6919 8.7003 7.6389 6.7709 6.4534 6.8589 7.6109 7.4577 8.4433 10.028 7.6240 3.8305 3.3026 3.8924 8.0027 16.636 19.622 28.947 49.536 45.017 17.778 4.4243 1.7697 1.1065 0.95735 0.77967 0.74692 0.80900 0.80062 0.68228 0.53869 0.60105 0.72137 0.71147 0.65133 1.1745 2.2006 2.2582 1.8103 2.5112 6.3159 18.570 32.512 27.113 9.7708 1.3430 0.79796 0.73946 0.80235 0.77386 0.60207 0.58900 0.65814 
11 -2.3518e-003 0.019036 0.066658 0.065324 0.013564 -0.014231 0.039825 0.094398 0.12788 0.22194 0.24422 0.38008 0.53562 0.73002 1.0220 1.3301 1.6485 2.0579 2.6108 3.2773 4.0875 5.0758 6.2126 7.3926 8.6022 9.7173 10.549 11.207 11.612 11.802 11.828 11.534 11.020 10.466 9.8465 9.1778 8.5023 7.8793 7.1822 6.4750 5.7433 5.0971 4.5198 3.8961 3.3180 2.8334 2.3770 1.9941 1.6724 1.3745 1.1555 0.95834 0.81628 0.69057 0.60598 0.52278 0.44434 0.41813 0.37473 0.32764 0.29297 0.27283 0.26603 0.23111 0.20899 0.19898 0.17154 0.15166 0.14440 0.14026 0.14055 0.11907 0.10712 0.11742 0.11879 0.10944 0.098970 0.085629 0.076777 0.12902 0.15278 0.17169 0.22796 0.32860 0.29775 0.13847 0.093693 0.099290 0.12471 0.11584 0.076686 0.064523 0.088899 0.13892 0.12382 0.12405 0.13804 0.15727 0.19447 0.19982 0.17738 0.18354 0.18923 0.20861 0.20472 0.22623 0.34501 0.43425 0.42256 0.32025 0.30011 0.29157 0.26554 0.33820 0.35962 0.38420 0.40679 0.34604 
12 -2.5087e-003 0.019542 0.076799 0.095288 0.048747 -8.7747e-003 -7.4653e-003 0.086691 0.11530 0.23228 0.24220 0.39511 0.54453 0.77571 1.0615 1.4031 1.7598 2.1630 2.7326 3.4311 4.2793 5.3057 6.4646 7.7003 8.9625 10.104 10.993 11.675 12.068 12.270 12.291 11.975 11.423 10.846 10.250 9.6049 9.0082 8.3596 7.5963 6.8291 6.0544 5.4379 4.9414 4.4150 3.9493 3.4680 2.8101 2.2992 2.0740 2.1081 1.9803 1.4802 1.1328 0.98651 0.96255 1.0163 1.4906 2.4052 2.2114 1.2497 0.80250 0.90171 1.2120 1.0815 0.75381 0.69015 0.62034 0.54414 0.54506 0.95594 2.0957 3.5424 3.9584 5.4236 7.3729 5.3179 1.8201 1.5688 2.4000 6.6895 15.493 18.664 28.136 48.883 44.542 17.346 4.0438 1.3863 0.77278 0.67434 0.57921 0.60386 0.66246 0.66688 0.56299 0.46786 0.54442 0.67267 0.67425 0.57713 1.0971 2.0984 2.1840 1.7712 2.4472 6.1564 18.308 32.277 26.966 9.5862 1.3431 0.78754 0.70374 0.62490 0.58397 0.58770 0.51841 0.45820 
13 -4.2484e-003 0.036049 0.10475 0.088243 0.061262 0.027990 0.069014 0.10311 0.14821 0.26407 0.27443 0.40068 0.57466 0.77337 1.0602 1.3831 1.7246 2.1487 2.7195 3.4037 4.2360 5.2580 6.4319 7.6617 8.9221 10.078 10.977 11.679 12.127 12.348 12.413 12.168 11.690 11.201 10.659 10.110 9.6305 9.2796 8.9485 8.6912 8.5401 8.6174 8.9060 9.2096 9.6227 10.217 10.877 11.509 12.040 12.475 13.072 13.564 13.721 13.771 14.038 14.256 14.199 14.005 13.650 13.228 12.859 12.458 11.810 10.923 10.094 9.2892 8.3084 7.2865 6.4127 5.6551 4.9225 4.2255 3.6354 3.2150 2.8395 2.4630 2.1230 1.8468 1.6185 1.4885 1.3853 1.2624 1.2627 1.4152 1.2338 0.76973 0.56016 0.47637 0.43679 0.39196 0.30938 0.25526 0.25925 0.29926 0.26437 0.23604 0.26530 0.27826 0.30132 0.30326 0.29592 0.27409 0.26259 0.29385 0.29629 0.36051 0.57302 0.75371 0.68550 0.47208 0.38098 0.38061 0.36402 0.43526 0.46143 0.47224 0.51120 0.49274 
14 -0.015896 0.13024 0.43197 0.43696 0.30469 0.24329 0.19535 0.36553 0.40560 0.55260 0.65328 0.89291 1.2791 1.6564 2.2735 2.9397 3.6423 4.5037 5.6891 7.1097 8.8310 10.928 13.335 15.897 18.484 20.949 22.768 24.264 25.165 25.609 25.772 25.217 24.248 23.238 22.151 21.163 20.347 19.574 18.822 18.199 17.764 18.030 18.822 19.645 20.742 21.956 22.852 23.947 25.230 26.726 28.054 28.386 28.299 28.433 29.044 29.741 30.825 32.299 31.275 28.616 27.032 26.418 25.775 23.834 21.476 19.760 17.712 15.531 13.830 13.163 13.866 15.369 15.184 17.179 20.278 15.449 7.7944 6.7361 7.9107 16.200 33.618 39.687 58.337 100.00 91.067 36.065 9.0568 3.6526 2.3274 1.9834 1.7371 1.6670 1.8161 1.8205 1.5401 1.2870 1.5337 1.8243 1.6046 1.5941 2.5734 4.5848 4.7438 3.8166 5.1292 12.673 37.258 65.247 54.609 19.643 3.0214 1.9535 1.7496 1.8527 1.8025 1.4880 1.3496 1.3914 
END_DATA
