usr/share/PGenerator/ccss/AMOLED_Generic.ccss
CCSS

DESCRIPTOR "AMOLED (Generic)"
ORIGINATOR "Argyll ccxxmake"
CREATED "Sat Aug  8 00:00:00 2026"
KEYWORD "DISPLAY"
DISPLAY "AMOLED Generic"
KEYWORD "TECHNOLOGY"
TECHNOLOGY "LED AMOLED"
KEYWORD "DISPLAY_TYPE_REFRESH"
DISPLAY_TYPE_REFRESH "NO"
KEYWORD "SPECTRAL_BANDS"
SPECTRAL_BANDS "36"
KEYWORD "SPECTRAL_START_NM"
SPECTRAL_START_NM "380.000000"
KEYWORD "SPECTRAL_END_NM"
SPECTRAL_END_NM "730.000000"
KEYWORD "SPECTRAL_NORM"
SPECTRAL_NORM "1.000000"

KEYWORD "SAMPLE_ID"
KEYWORD "SPEC_380"
KEYWORD "SPEC_390"
KEYWORD "SPEC_400"
KEYWORD "SPEC_410"
KEYWORD "SPEC_420"
KEYWORD "SPEC_430"
KEYWORD "SPEC_440"
KEYWORD "SPEC_450"
KEYWORD "SPEC_460"
KEYWORD "SPEC_470"
KEYWORD "SPEC_480"
KEYWORD "SPEC_490"
KEYWORD "SPEC_500"
KEYWORD "SPEC_510"
KEYWORD "SPEC_520"
KEYWORD "SPEC_530"
KEYWORD "SPEC_540"
KEYWORD "SPEC_550"
KEYWORD "SPEC_560"
KEYWORD "SPEC_570"
KEYWORD "SPEC_580"
KEYWORD "SPEC_590"
KEYWORD "SPEC_600"
KEYWORD "SPEC_610"
KEYWORD "SPEC_620"
KEYWORD "SPEC_630"
KEYWORD "SPEC_640"
KEYWORD "SPEC_650"
KEYWORD "SPEC_660"
KEYWORD "SPEC_670"
KEYWORD "SPEC_680"
KEYWORD "SPEC_690"
KEYWORD "SPEC_700"
KEYWORD "SPEC_710"
KEYWORD "SPEC_720"
KEYWORD "SPEC_730"
NUMBER_OF_FIELDS 37
BEGIN_DATA_FORMAT
SAMPLE_ID SPEC_380 SPEC_390 SPEC_400 SPEC_410 SPEC_420 SPEC_430 SPEC_440 SPEC_450 SPEC_460 SPEC_470 SPEC_480 SPEC_490 SPEC_500 SPEC_510 SPEC_520 SPEC_530 SPEC_540 SPEC_550 SPEC_560 SPEC_570 SPEC_580 SPEC_590 SPEC_600 SPEC_610 SPEC_620 SPEC_630 SPEC_640 SPEC_650 SPEC_660 SPEC_670 SPEC_680 SPEC_690 SPEC_700 SPEC_710 SPEC_720 SPEC_730
END_DATA_FORMAT

NUMBER_OF_SETS 4
BEGIN_DATA
1 0.00554367 0.00261215 0.00315490 0.00151550 0.00356069 0.00493384 0.00110750 0.00197697 0.00498749 0.00567363 0.00150801 0.00213485 0.00101485 0.00165239 0.00575964 0.00436486 0.00304827 0.00713964 0.0395677 0.179209 0.821012 4.603961 20.93164 46.50239 52.45109 44.04946 33.10925 21.33693 11.96025 6.779869 4.599098 3.374261 2.397863 1.577597 0.944770 0.567701
2 0.0204291 0.0128672 0.00968092 0.0000576205 0.0000758186 0.00464226 0.111799 1.399064 4.111108 2.726885 0.962213 0.844947 3.139387 17.02031 57.95384 67.64607 38.40377 26.05754 17.39632 8.919231 4.924910 3.214825 2.088339 1.168564 0.627435 0.399768 0.295816 0.211818 0.145288 0.0993129 0.0947877 0.0884897 0.0903992 0.0761907 0.0637322 0.0595820
3 -0.00946520 -0.0116870 -0.0111552 -0.00135058 0.0440614 0.191379 2.995943 34.60839 100.0000 65.77456 22.03837 8.458028 3.532080 1.831363 2.232363 2.268056 1.274130 0.836504 0.554173 0.298107 0.173646 0.122794 0.0865068 0.0569824 0.0351838 0.0324714 0.0270821 0.0252768 0.0491533 0.101671 0.0946682 0.0526646 0.0450380 0.0299199 0.0414253 0.0589204
4 0.0214189 0.00320250 0.000534607 0.0101187 0.0381297 0.182940 2.948241 34.10265 98.55395 64.83212 21.76978 8.797497 6.275569 17.61791 56.12406 65.27819 37.04116 25.11004 16.78705 8.760606 5.522952 7.433018 21.71616 44.98947 50.16848 42.03606 31.57720 20.38199 11.48211 6.620354 4.506862 3.321895 2.397557 1.641569 1.030998 0.689418
END_DATA
