usr/share/PGenerator/ccss/PlasmaFamily_20Jul12.ccss
CCSS   

ORIGINATOR "X-Rite"
CREATED "Fri Jul 20 14:15:41 2012"
KEYWORD "DISPLAY"
DISPLAY "EDR for Plasma created with primaries R, G, B and White"
KEYWORD "TECHNOLOGY"
TECHNOLOGY "Plasma"
KEYWORD "DISPLAY_TYPE_REFRESH"
DISPLAY_TYPE_REFRESH "YES"
KEYWORD "UI_SELECTORS"
UI_SELECTORS "m"
KEYWORD "REFERENCE"
REFERENCE "CS1000"
KEYWORD "SPECTRAL_BANDS"
SPECTRAL_BANDS "351"
KEYWORD "SPECTRAL_START_NM"
SPECTRAL_START_NM "380.000000"
KEYWORD "SPECTRAL_END_NM"
SPECTRAL_END_NM "730.000000"
KEYWORD "SPECTRAL_NORM"
SPECTRAL_NORM "1.000000"
DESCRIPTOR "Not specified"

KEYWORD "SPEC_380"
KEYWORD "SPEC_381"
KEYWORD "SPEC_382"
KEYWORD "SPEC_383"
KEYWORD "SPEC_384"
KEYWORD "SPEC_385"
KEYWORD "SPEC_386"
KEYWORD "SPEC_387"
KEYWORD "SPEC_388"
KEYWORD "SPEC_389"
KEYWORD "SPEC_390"
KEYWORD "SPEC_391"
KEYWORD "SPEC_392"
KEYWORD "SPEC_393"
KEYWORD "SPEC_394"
KEYWORD "SPEC_395"
KEYWORD "SPEC_396"
KEYWORD "SPEC_397"
KEYWORD "SPEC_398"
KEYWORD "SPEC_399"
KEYWORD "SPEC_400"
KEYWORD "SPEC_401"
KEYWORD "SPEC_402"
KEYWORD "SPEC_403"
KEYWORD "SPEC_404"
KEYWORD "SPEC_405"
KEYWORD "SPEC_406"
KEYWORD "SPEC_407"
KEYWORD "SPEC_408"
KEYWORD "SPEC_409"
KEYWORD "SPEC_410"
KEYWORD "SPEC_411"
KEYWORD "SPEC_412"
KEYWORD "SPEC_413"
KEYWORD "SPEC_414"
KEYWORD "SPEC_415"
KEYWORD "SPEC_416"
KEYWORD "SPEC_417"
KEYWORD "SPEC_418"
KEYWORD "SPEC_419"
KEYWORD "SPEC_420"
KEYWORD "SPEC_421"
KEYWORD "SPEC_422"
KEYWORD "SPEC_423"
KEYWORD "SPEC_424"
KEYWORD "SPEC_425"
KEYWORD "SPEC_426"
KEYWORD "SPEC_427"
KEYWORD "SPEC_428"
KEYWORD "SPEC_429"
KEYWORD "SPEC_430"
KEYWORD "SPEC_431"
KEYWORD "SPEC_432"
KEYWORD "SPEC_433"
KEYWORD "SPEC_434"
KEYWORD "SPEC_435"
KEYWORD "SPEC_436"
KEYWORD "SPEC_437"
KEYWORD "SPEC_438"
KEYWORD "SPEC_439"
KEYWORD "SPEC_440"
KEYWORD "SPEC_441"
KEYWORD "SPEC_442"
KEYWORD "SPEC_443"
KEYWORD "SPEC_444"
KEYWORD "SPEC_445"
KEYWORD "SPEC_446"
KEYWORD "SPEC_447"
KEYWORD "SPEC_448"
KEYWORD "SPEC_449"
KEYWORD "SPEC_450"
KEYWORD "SPEC_451"
KEYWORD "SPEC_452"
KEYWORD "SPEC_453"
KEYWORD "SPEC_454"
KEYWORD "SPEC_455"
KEYWORD "SPEC_456"
KEYWORD "SPEC_457"
KEYWORD "SPEC_458"
KEYWORD "SPEC_459"
KEYWORD "SPEC_460"
KEYWORD "SPEC_461"
KEYWORD "SPEC_462"
KEYWORD "SPEC_463"
KEYWORD "SPEC_464"
KEYWORD "SPEC_465"
KEYWORD "SPEC_466"
KEYWORD "SPEC_467"
KEYWORD "SPEC_468"
KEYWORD "SPEC_469"
KEYWORD "SPEC_470"
KEYWORD "SPEC_471"
KEYWORD "SPEC_472"
KEYWORD "SPEC_473"
KEYWORD "SPEC_474"
KEYWORD "SPEC_475"
KEYWORD "SPEC_476"
KEYWORD "SPEC_477"
KEYWORD "SPEC_478"
KEYWORD "SPEC_479"
KEYWORD "SPEC_480"
KEYWORD "SPEC_481"
KEYWORD "SPEC_482"
KEYWORD "SPEC_483"
KEYWORD "SPEC_484"
KEYWORD "SPEC_485"
KEYWORD "SPEC_486"
KEYWORD "SPEC_487"
KEYWORD "SPEC_488"
KEYWORD "SPEC_489"
KEYWORD "SPEC_490"
KEYWORD "SPEC_491"
KEYWORD "SPEC_492"
KEYWORD "SPEC_493"
KEYWORD "SPEC_494"
KEYWORD "SPEC_495"
KEYWORD "SPEC_496"
KEYWORD "SPEC_497"
KEYWORD "SPEC_498"
KEYWORD "SPEC_499"
KEYWORD "SPEC_500"
KEYWORD "SPEC_501"
KEYWORD "SPEC_502"
KEYWORD "SPEC_503"
KEYWORD "SPEC_504"
KEYWORD "SPEC_505"
KEYWORD "SPEC_506"
KEYWORD "SPEC_507"
KEYWORD "SPEC_508"
KEYWORD "SPEC_509"
KEYWORD "SPEC_510"
KEYWORD "SPEC_511"
KEYWORD "SPEC_512"
KEYWORD "SPEC_513"
KEYWORD "SPEC_514"
KEYWORD "SPEC_515"
KEYWORD "SPEC_516"
KEYWORD "SPEC_517"
KEYWORD "SPEC_518"
KEYWORD "SPEC_519"
KEYWORD "SPEC_520"
KEYWORD "SPEC_521"
KEYWORD "SPEC_522"
KEYWORD "SPEC_523"
KEYWORD "SPEC_524"
KEYWORD "SPEC_525"
KEYWORD "SPEC_526"
KEYWORD "SPEC_527"
KEYWORD "SPEC_528"
KEYWORD "SPEC_529"
KEYWORD "SPEC_530"
KEYWORD "SPEC_531"
KEYWORD "SPEC_532"
KEYWORD "SPEC_533"
KEYWORD "SPEC_534"
KEYWORD "SPEC_535"
KEYWORD "SPEC_536"
KEYWORD "SPEC_537"
KEYWORD "SPEC_538"
KEYWORD "SPEC_539"
KEYWORD "SPEC_540"
KEYWORD "SPEC_541"
KEYWORD "SPEC_542"
KEYWORD "SPEC_543"
KEYWORD "SPEC_544"
KEYWORD "SPEC_545"
KEYWORD "SPEC_546"
KEYWORD "SPEC_547"
KEYWORD "SPEC_548"
KEYWORD "SPEC_549"
KEYWORD "SPEC_550"
KEYWORD "SPEC_551"
KEYWORD "SPEC_552"
KEYWORD "SPEC_553"
KEYWORD "SPEC_554"
KEYWORD "SPEC_555"
KEYWORD "SPEC_556"
KEYWORD "SPEC_557"
KEYWORD "SPEC_558"
KEYWORD "SPEC_559"
KEYWORD "SPEC_560"
KEYWORD "SPEC_561"
KEYWORD "SPEC_562"
KEYWORD "SPEC_563"
KEYWORD "SPEC_564"
KEYWORD "SPEC_565"
KEYWORD "SPEC_566"
KEYWORD "SPEC_567"
KEYWORD "SPEC_568"
KEYWORD "SPEC_569"
KEYWORD "SPEC_570"
KEYWORD "SPEC_571"
KEYWORD "SPEC_572"
KEYWORD "SPEC_573"
KEYWORD "SPEC_574"
KEYWORD "SPEC_575"
KEYWORD "SPEC_576"
KEYWORD "SPEC_577"
KEYWORD "SPEC_578"
KEYWORD "SPEC_579"
KEYWORD "SPEC_580"
KEYWORD "SPEC_581"
KEYWORD "SPEC_582"
KEYWORD "SPEC_583"
KEYWORD "SPEC_584"
KEYWORD "SPEC_585"
KEYWORD "SPEC_586"
KEYWORD "SPEC_587"
KEYWORD "SPEC_588"
KEYWORD "SPEC_589"
KEYWORD "SPEC_590"
KEYWORD "SPEC_591"
KEYWORD "SPEC_592"
KEYWORD "SPEC_593"
KEYWORD "SPEC_594"
KEYWORD "SPEC_595"
KEYWORD "SPEC_596"
KEYWORD "SPEC_597"
KEYWORD "SPEC_598"
KEYWORD "SPEC_599"
KEYWORD "SPEC_600"
KEYWORD "SPEC_601"
KEYWORD "SPEC_602"
KEYWORD "SPEC_603"
KEYWORD "SPEC_604"
KEYWORD "SPEC_605"
KEYWORD "SPEC_606"
KEYWORD "SPEC_607"
KEYWORD "SPEC_608"
KEYWORD "SPEC_609"
KEYWORD "SPEC_610"
KEYWORD "SPEC_611"
KEYWORD "SPEC_612"
KEYWORD "SPEC_613"
KEYWORD "SPEC_614"
KEYWORD "SPEC_615"
KEYWORD "SPEC_616"
KEYWORD "SPEC_617"
KEYWORD "SPEC_618"
KEYWORD "SPEC_619"
KEYWORD "SPEC_620"
KEYWORD "SPEC_621"
KEYWORD "SPEC_622"
KEYWORD "SPEC_623"
KEYWORD "SPEC_624"
KEYWORD "SPEC_625"
KEYWORD "SPEC_626"
KEYWORD "SPEC_627"
KEYWORD "SPEC_628"
KEYWORD "SPEC_629"
KEYWORD "SPEC_630"
KEYWORD "SPEC_631"
KEYWORD "SPEC_632"
KEYWORD "SPEC_633"
KEYWORD "SPEC_634"
KEYWORD "SPEC_635"
KEYWORD "SPEC_636"
KEYWORD "SPEC_637"
KEYWORD "SPEC_638"
KEYWORD "SPEC_639"
KEYWORD "SPEC_640"
KEYWORD "SPEC_641"
KEYWORD "SPEC_642"
KEYWORD "SPEC_643"
KEYWORD "SPEC_644"
KEYWORD "SPEC_645"
KEYWORD "SPEC_646"
KEYWORD "SPEC_647"
KEYWORD "SPEC_648"
KEYWORD "SPEC_649"
KEYWORD "SPEC_650"
KEYWORD "SPEC_651"
KEYWORD "SPEC_652"
KEYWORD "SPEC_653"
KEYWORD "SPEC_654"
KEYWORD "SPEC_655"
KEYWORD "SPEC_656"
KEYWORD "SPEC_657"
KEYWORD "SPEC_658"
KEYWORD "SPEC_659"
KEYWORD "SPEC_660"
KEYWORD "SPEC_661"
KEYWORD "SPEC_662"
KEYWORD "SPEC_663"
KEYWORD "SPEC_664"
KEYWORD "SPEC_665"
KEYWORD "SPEC_666"
KEYWORD "SPEC_667"
KEYWORD "SPEC_668"
KEYWORD "SPEC_669"
KEYWORD "SPEC_670"
KEYWORD "SPEC_671"
KEYWORD "SPEC_672"
KEYWORD "SPEC_673"
KEYWORD "SPEC_674"
KEYWORD "SPEC_675"
KEYWORD "SPEC_676"
KEYWORD "SPEC_677"
KEYWORD "SPEC_678"
KEYWORD "SPEC_679"
KEYWORD "SPEC_680"
KEYWORD "SPEC_681"
KEYWORD "SPEC_682"
KEYWORD "SPEC_683"
KEYWORD "SPEC_684"
KEYWORD "SPEC_685"
KEYWORD "SPEC_686"
KEYWORD "SPEC_687"
KEYWORD "SPEC_688"
KEYWORD "SPEC_689"
KEYWORD "SPEC_690"
KEYWORD "SPEC_691"
KEYWORD "SPEC_692"
KEYWORD "SPEC_693"
KEYWORD "SPEC_694"
KEYWORD "SPEC_695"
KEYWORD "SPEC_696"
KEYWORD "SPEC_697"
KEYWORD "SPEC_698"
KEYWORD "SPEC_699"
KEYWORD "SPEC_700"
KEYWORD "SPEC_701"
KEYWORD "SPEC_702"
KEYWORD "SPEC_703"
KEYWORD "SPEC_704"
KEYWORD "SPEC_705"
KEYWORD "SPEC_706"
KEYWORD "SPEC_707"
KEYWORD "SPEC_708"
KEYWORD "SPEC_709"
KEYWORD "SPEC_710"
KEYWORD "SPEC_711"
KEYWORD "SPEC_712"
KEYWORD "SPEC_713"
KEYWORD "SPEC_714"
KEYWORD "SPEC_715"
KEYWORD "SPEC_716"
KEYWORD "SPEC_717"
KEYWORD "SPEC_718"
KEYWORD "SPEC_719"
KEYWORD "SPEC_720"
KEYWORD "SPEC_721"
KEYWORD "SPEC_722"
KEYWORD "SPEC_723"
KEYWORD "SPEC_724"
KEYWORD "SPEC_725"
KEYWORD "SPEC_726"
KEYWORD "SPEC_727"
KEYWORD "SPEC_728"
KEYWORD "SPEC_729"
KEYWORD "SPEC_730"
NUMBER_OF_FIELDS 352
BEGIN_DATA_FORMAT
SAMPLE_ID SPEC_380 SPEC_381 SPEC_382 SPEC_383 SPEC_384 SPEC_385 SPEC_386 SPEC_387 SPEC_388 SPEC_389 SPEC_390 SPEC_391 SPEC_392 SPEC_393 SPEC_394 SPEC_395 SPEC_396 SPEC_397 SPEC_398 SPEC_399 SPEC_400 SPEC_401 SPEC_402 SPEC_403 SPEC_404 SPEC_405 SPEC_406 SPEC_407 SPEC_408 SPEC_409 SPEC_410 SPEC_411 SPEC_412 SPEC_413 SPEC_414 SPEC_415 SPEC_416 SPEC_417 SPEC_418 SPEC_419 SPEC_420 SPEC_421 SPEC_422 SPEC_423 SPEC_424 SPEC_425 SPEC_426 SPEC_427 SPEC_428 SPEC_429 SPEC_430 SPEC_431 SPEC_432 SPEC_433 SPEC_434 SPEC_435 SPEC_436 SPEC_437 SPEC_438 SPEC_439 SPEC_440 SPEC_441 SPEC_442 SPEC_443 SPEC_444 SPEC_445 SPEC_446 SPEC_447 SPEC_448 SPEC_449 SPEC_450 SPEC_451 SPEC_452 SPEC_453 SPEC_454 SPEC_455 SPEC_456 SPEC_457 SPEC_458 SPEC_459 SPEC_460 SPEC_461 SPEC_462 SPEC_463 SPEC_464 SPEC_465 SPEC_466 SPEC_467 SPEC_468 SPEC_469 SPEC_470 SPEC_471 SPEC_472 SPEC_473 SPEC_474 SPEC_475 SPEC_476 SPEC_477 SPEC_478 SPEC_479 SPEC_480 SPEC_481 SPEC_482 SPEC_483 SPEC_484 SPEC_485 SPEC_486 SPEC_487 SPEC_488 SPEC_489 SPEC_490 SPEC_491 SPEC_492 SPEC_493 SPEC_494 SPEC_495 SPEC_496 SPEC_497 SPEC_498 SPEC_499 SPEC_500 SPEC_501 SPEC_502 SPEC_503 SPEC_504 SPEC_505 SPEC_506 SPEC_507 SPEC_508 SPEC_509 SPEC_510 SPEC_511 SPEC_512 SPEC_513 SPEC_514 SPEC_515 SPEC_516 SPEC_517 SPEC_518 SPEC_519 SPEC_520 SPEC_521 SPEC_522 SPEC_523 SPEC_524 SPEC_525 SPEC_526 SPEC_527 SPEC_528 SPEC_529 SPEC_530 SPEC_531 SPEC_532 SPEC_533 SPEC_534 SPEC_535 SPEC_536 SPEC_537 SPEC_538 SPEC_539 SPEC_540 SPEC_541 SPEC_542 SPEC_543 SPEC_544 SPEC_545 SPEC_546 SPEC_547 SPEC_548 SPEC_549 SPEC_550 SPEC_551 SPEC_552 SPEC_553 SPEC_554 SPEC_555 SPEC_556 SPEC_557 SPEC_558 SPEC_559 SPEC_560 SPEC_561 SPEC_562 SPEC_563 SPEC_564 SPEC_565 SPEC_566 SPEC_567 SPEC_568 SPEC_569 SPEC_570 SPEC_571 SPEC_572 SPEC_573 SPEC_574 SPEC_575 SPEC_576 SPEC_577 SPEC_578 SPEC_579 SPEC_580 SPEC_581 SPEC_582 SPEC_583 SPEC_584 SPEC_585 SPEC_586 SPEC_587 SPEC_588 SPEC_589 SPEC_590 SPEC_591 SPEC_592 SPEC_593 SPEC_594 SPEC_595 SPEC_596 SPEC_597 SPEC_598 SPEC_599 SPEC_600 SPEC_601 SPEC_602 SPEC_603 SPEC_604 SPEC_605 SPEC_606 SPEC_607 SPEC_608 SPEC_609 SPEC_610 SPEC_611 SPEC_612 SPEC_613 SPEC_614 SPEC_615 SPEC_616 SPEC_617 SPEC_618 SPEC_619 SPEC_620 SPEC_621 SPEC_622 SPEC_623 SPEC_624 SPEC_625 SPEC_626 SPEC_627 SPEC_628 SPEC_629 SPEC_630 SPEC_631 SPEC_632 SPEC_633 SPEC_634 SPEC_635 SPEC_636 SPEC_637 SPEC_638 SPEC_639 SPEC_640 SPEC_641 SPEC_642 SPEC_643 SPEC_644 SPEC_645 SPEC_646 SPEC_647 SPEC_648 SPEC_649 SPEC_650 SPEC_651 SPEC_652 SPEC_653 SPEC_654 SPEC_655 SPEC_656 SPEC_657 SPEC_658 SPEC_659 SPEC_660 SPEC_661 SPEC_662 SPEC_663 SPEC_664 SPEC_665 SPEC_666 SPEC_667 SPEC_668 SPEC_669 SPEC_670 SPEC_671 SPEC_672 SPEC_673 SPEC_674 SPEC_675 SPEC_676 SPEC_677 SPEC_678 SPEC_679 SPEC_680 SPEC_681 SPEC_682 SPEC_683 SPEC_684 SPEC_685 SPEC_686 SPEC_687 SPEC_688 SPEC_689 SPEC_690 SPEC_691 SPEC_692 SPEC_693 SPEC_694 SPEC_695 SPEC_696 SPEC_697 SPEC_698 SPEC_699 SPEC_700 SPEC_701 SPEC_702 SPEC_703 SPEC_704 SPEC_705 SPEC_706 SPEC_707 SPEC_708 SPEC_709 SPEC_710 SPEC_711 SPEC_712 SPEC_713 SPEC_714 SPEC_715 SPEC_716 SPEC_717 SPEC_718 SPEC_719 SPEC_720 SPEC_721 SPEC_722 SPEC_723 SPEC_724 SPEC_725 SPEC_726 SPEC_727 SPEC_728 SPEC_729 SPEC_730 
END_DATA_FORMAT

NUMBER_OF_SETS 4
BEGIN_DATA
1 2.57718e-003 2.28526e-004 8.95662e-004 2.40368e-003 1.19335e-003 0.0118637 5.39908e-003 0.0124562 7.69725e-003 0.0109790 0.0134085 9.82237e-003 0.0133464 0.0147897 0.0137136 0.0159123 0.0176436 0.0129224 0.0128284 0.0154165 0.0181393 0.0158969 0.0189385 0.0172785 0.0189287 0.0182551 0.0205361 0.0226288 0.0212932 0.0224955 0.0225269 0.0247714 0.0260011 0.0286202 0.0292756 0.0307872 0.0337210 0.0369470 0.0360321 0.0397821 0.0416178 0.0427154 0.0441986 0.0453288 0.0485062 0.0501547 0.0510613 0.0522970 0.0542832 0.0560313 0.0590906 0.0599718 0.0621579 0.0643364 0.0639136 0.0659589 0.0667934 0.0678417 0.0692699 0.0693619 0.0691405 0.0706887 0.0731554 0.0749422 0.0734973 0.0737474 0.0748096 0.0760388 0.0756781 0.0755420 0.0755983 0.0759676 0.0751588 0.0739347 0.0736398 0.0733605 0.0722613 0.0712668 0.0705714 0.0709195 0.0712536 0.0724149 0.0719157 0.0739124 0.0743279 0.0735774 0.0725822 0.0714885 0.0720609 0.0698814 0.0654754 0.0612307 0.0585232 0.0569696 0.0545694 0.0529928 0.0510197 0.0497750 0.0484187 0.0476215 0.0494036 0.0478430 0.0484381 0.0480251 0.0490992 0.0498124 0.0469059 0.0457106 0.0450651 0.0457503 0.0469968 0.0492885 0.0504622 0.0492442 0.0504080 0.0488407 0.0484427 0.0494391 0.0497594 0.0519036 0.0539291 0.0566423 0.0600645 0.0622283 0.0660729 0.0681505 0.0720267 0.0752531 0.0786422 0.0830107 0.0886561 0.0932374 0.0983324 0.101770 0.106678 0.110723 0.114143 0.117598 0.121503 0.125428 0.128780 0.131437 0.134047 0.135958 0.137867 0.139272 0.141022 0.142529 0.140379 0.140582 0.139827 0.138461 0.137947 0.137408 0.138752 0.143613 0.150203 0.162095 0.171057 0.170191 0.156669 0.138749 0.120641 0.107833 0.100832 0.0968915 0.0922411 0.0894691 0.0871588 0.0847825 0.0817157 0.0820396 0.0812847 0.0819050 0.0824953 0.0833303 0.0830078 0.0850787 0.0879077 0.0876410 0.0860246 0.0797708 0.0723215 0.0657210 0.0607453 0.0563988 0.0543444 0.0522810 0.0505664 0.0489753 0.0483998 0.0476498 0.0465480 0.0447861 0.0436945 0.0442174 0.0441180 0.0436666 0.0452078 0.0542962 0.0710087 0.0815969 0.0885369 0.0925022 0.105501 0.116712 0.131122 0.141063 0.135116 0.165941 0.246169 0.395374 0.577393 0.753950 0.847951 0.809743 0.658058 0.457834 0.274044 0.163015 0.112666 0.0948162 0.0943332 0.102421 0.121128 0.147392 0.192474 0.273043 0.438689 0.700562 1.00692 1.40220 2.16717 3.27803 4.29868 4.93692 5.36105 6.27800 8.20530 10.3233 10.9598 9.56705 6.82532 4.06235 2.23863 1.38719 1.03881 0.851855 0.713708 0.609222 0.530339 0.472895 0.420870 0.362796 0.297942 0.242906 0.196534 0.169008 0.154704 0.145186 0.135820 0.121919 0.103252 0.0883340 0.0845550 0.0882516 0.100850 0.131454 0.196261 0.290351 0.388050 0.451211 0.456578 0.422151 0.371632 0.321581 0.270810 0.225105 0.195414 0.177156 0.168014 0.155340 0.138311 0.120059 0.104046 0.0969307 0.0921660 0.0907113 0.0863162 0.0797417 0.0739719 0.0682525 0.0634863 0.0571604 0.0505631 0.0424339 0.0388700 0.0384109 0.0382481 0.0392507 0.0405315 0.0403054 0.0419691 0.0448461 0.0485574 0.0543701 0.0656152 0.0830233 0.105540 0.137741 0.189209 0.298984 0.521697 0.948049 1.67257 2.70398 3.82779 4.61077 4.60486 3.88408 2.94369 2.35508 2.35210 2.66013 2.79304 2.47502 1.77769 1.03745 0.531257 0.275192 0.168642 0.122497 0.0977222 0.0837481 0.0669781 0.0536744 0.0469621 0.0420418 0.0375607 0.0340127 0.0311448 0.0296924 0.0279303 0.0257217 0.0280460 0.0262585 0.0250028 0.0233773 0.0218937 0.0219193 0.0192270 
2 4.99545e-004 0.00000 5.34013e-003 4.66830e-003 5.99778e-003 3.87072e-003 6.08141e-003 7.20769e-003 7.27633e-003 8.60165e-003 7.21423e-003 7.76033e-003 9.22629e-003 8.49982e-003 9.84808e-003 0.0101426 0.0101377 0.0106748 0.0106948 0.0105852 0.0110886 0.0104295 0.0107024 0.0125422 0.0115864 0.0115098 0.0126080 0.0134779 0.0148531 0.0159124 0.0160289 0.0167476 0.0182303 0.0195753 0.0207308 0.0221942 0.0235963 0.0257906 0.0269970 0.0291054 0.0310330 0.0335616 0.0357675 0.0376717 0.0392575 0.0413706 0.0436088 0.0452252 0.0468530 0.0483922 0.0509154 0.0520327 0.0543360 0.0565540 0.0580624 0.0601834 0.0618402 0.0638594 0.0650612 0.0661579 0.0678522 0.0679782 0.0693069 0.0698582 0.0710401 0.0710307 0.0720260 0.0718894 0.0725631 0.0724351 0.0725254 0.0731495 0.0723092 0.0725978 0.0710548 0.0703942 0.0697333 0.0702211 0.0698636 0.0699924 0.0711780 0.0720117 0.0734496 0.0735087 0.0740171 0.0746420 0.0764979 0.0782791 0.0803346 0.0808582 0.0793675 0.0800123 0.0821375 0.0854111 0.0894589 0.0937534 0.0986106 0.104855 0.113140 0.123375 0.135117 0.147515 0.163136 0.179157 0.195976 0.215196 0.235334 0.257612 0.283222 0.311363 0.344295 0.379508 0.418853 0.459944 0.504846 0.552051 0.602977 0.658790 0.719701 0.784416 0.854212 0.928249 1.00718 1.08988 1.17931 1.27167 1.37007 1.47316 1.58025 1.69319 1.80878 1.92651 2.04447 2.16346 2.27812 2.39268 2.50348 2.61120 2.71057 2.80295 2.88584 2.95916 3.02205 3.07640 3.11603 3.14603 3.16454 3.17191 3.16865 3.15199 3.12614 3.08907 3.04347 2.99027 2.92704 2.85814 2.78363 2.70629 2.62634 2.54625 2.46842 2.39200 2.31794 2.24743 2.18246 2.12044 2.06438 2.01059 1.95857 1.90921 1.86418 1.82076 1.77738 1.73394 1.69150 1.64954 1.60683 1.56484 1.52413 1.48357 1.44055 1.39717 1.35461 1.31342 1.27349 1.23431 1.19686 1.16062 1.12518 1.09030 1.05712 1.02494 0.993416 0.962123 0.931189 0.899115 0.867855 0.834581 0.799327 0.763077 0.725720 0.687345 0.649035 0.616560 0.589959 0.557121 0.519905 0.473160 0.423375 0.382390 0.349425 0.322300 0.301807 0.288902 0.279500 0.274172 0.272175 0.273212 0.278177 0.286369 0.298422 0.313728 0.330069 0.346846 0.363700 0.379512 0.396510 0.413595 0.430833 0.445342 0.454815 0.460579 0.467094 0.477766 0.488903 0.496902 0.497850 0.496555 0.494524 0.492876 0.487115 0.473593 0.454605 0.435710 0.421569 0.413413 0.408177 0.401365 0.389607 0.377596 0.366109 0.357188 0.349800 0.341716 0.332618 0.323278 0.316980 0.314619 0.313960 0.311967 0.306132 0.293777 0.278026 0.262958 0.251398 0.242960 0.236431 0.230752 0.226952 0.224866 0.222283 0.218612 0.211600 0.203592 0.198369 0.194513 0.187692 0.184923 0.186176 0.189824 0.189734 0.182011 0.169856 0.157675 0.149576 0.147357 0.148015 0.150648 0.150277 0.145258 0.139675 0.134511 0.131562 0.125405 0.117798 0.111291 0.105546 0.101415 0.0991673 0.0960538 0.0947000 0.0925289 0.0909556 0.0879923 0.0859621 0.0840382 0.0829643 0.0823711 0.0811308 0.0784922 0.0760265 0.0754916 0.0758164 0.0772598 0.0776791 0.0780231 0.0777548 0.0787672 0.0773259 0.0732163 0.0692487 0.0710141 0.0785911 0.0854808 0.0837004 0.0745892 0.0610497 0.0494957 0.0452751 0.0429108 0.0422009 0.0421800 0.0415941 0.0401813 0.0372894 0.0351107 0.0327064 0.0320614 0.0311120 0.0303649 0.0290974 0.0281402 0.0285928 0.0324747 0.0337268 0.0345445 0.0326488 0.0293204 0.0275546 0.0268353 0.0255485 
3 8.58805e-004 2.29656e-003 1.94335e-003 1.73390e-003 3.17617e-003 4.23759e-003 4.34473e-003 6.55910e-003 7.74699e-003 8.71244e-003 0.0126135 0.0147814 0.0171375 0.0216651 0.0261343 0.0315671 0.0390786 0.0468376 0.0559063 0.0685678 0.0818293 0.0973364 0.115897 0.137615 0.161999 0.190786 0.223653 0.259606 0.301674 0.347301 0.398626 0.455670 0.518084 0.586625 0.658804 0.737170 0.821420 0.908449 1.00021 1.09822 1.19996 1.31411 1.42847 1.54038 1.64962 1.75488 1.86145 1.96697 2.07701 2.18534 2.28840 2.39841 2.49741 2.59704 2.69633 2.78623 2.87513 2.95736 3.03388 3.10562 3.17079 3.22757 3.27439 3.31542 3.34704 3.36899 3.39000 3.40138 3.40591 3.40599 3.39661 3.38158 3.36062 3.33650 3.30200 3.26653 3.22290 3.17703 3.12829 3.07149 3.01659 2.95991 2.89858 2.82908 2.75861 2.68844 2.62075 2.54931 2.46925 2.38876 2.31238 2.23520 2.16084 2.08636 2.00865 1.93233 1.85866 1.78888 1.71982 1.65193 1.58772 1.52073 1.45679 1.39446 1.33368 1.27221 1.21490 1.15821 1.10347 1.05144 1.00240 0.956840 0.910264 0.864430 0.820354 0.778988 0.739193 0.701698 0.666036 0.631451 0.599747 0.570099 0.542037 0.515259 0.490168 0.466261 0.444127 0.423217 0.403437 0.385367 0.368152 0.352271 0.337775 0.324425 0.312168 0.300224 0.289063 0.278807 0.268811 0.259600 0.250413 0.242007 0.234200 0.226220 0.219106 0.211726 0.204942 0.198069 0.190926 0.184542 0.177618 0.170865 0.164032 0.157763 0.150905 0.144677 0.138504 0.132349 0.127059 0.121857 0.116427 0.111389 0.106186 0.101685 0.0975094 0.0933961 0.0903179 0.0874380 0.0841844 0.0816974 0.0790729 0.0768533 0.0745341 0.0723704 0.0703949 0.0685670 0.0666784 0.0646565 0.0627601 0.0610719 0.0592869 0.0569383 0.0552538 0.0533870 0.0517349 0.0502792 0.0486020 0.0469230 0.0454863 0.0442280 0.0430062 0.0416410 0.0404408 0.0391852 0.0379740 0.0370846 0.0358874 0.0344078 0.0332342 0.0319379 0.0308702 0.0301235 0.0300735 0.0341850 0.0432842 0.0476188 0.0480973 0.0416020 0.0312912 0.0253416 0.0228577 0.0231377 0.0253771 0.0289888 0.0307351 0.0302783 0.0269326 0.0223449 0.0186616 0.0164646 0.0159330 0.0166055 0.0180254 0.0197283 0.0208149 0.0221158 0.0249133 0.0294149 0.0363589 0.0436923 0.0504096 0.0577683 0.0731247 0.0984402 0.123247 0.140359 0.150172 0.166543 0.201943 0.241739 0.252794 0.222812 0.165570 0.108040 0.0707898 0.0553492 0.0504862 0.0470976 0.0431063 0.0377854 0.0345807 0.0328597 0.0319630 0.0308364 0.0289591 0.0269021 0.0270782 0.0299733 0.0343267 0.0377694 0.0382082 0.0345632 0.0281656 0.0225807 0.0191527 0.0179564 0.0177063 0.0183548 0.0208827 0.0250129 0.0289426 0.0308884 0.0306333 0.0276396 0.0249578 0.0224605 0.0200204 0.0207696 0.0244934 0.0292468 0.0324965 0.0296922 0.0238687 0.0185602 0.0151129 0.0157917 0.0191934 0.0230753 0.0245498 0.0237481 0.0222650 0.0209699 0.0200438 0.0187742 0.0150050 0.0120601 0.0103894 0.0101011 9.91448e-003 9.57227e-003 0.0102429 9.75254e-003 0.0102732 0.0110739 0.0108284 0.0111705 0.0117166 0.0126180 0.0137810 0.0142676 0.0141598 0.0179676 0.0246919 0.0340963 0.0483506 0.0675749 0.0891351 0.104644 0.103914 0.0891562 0.0702491 0.0616379 0.0680482 0.0786165 0.0810564 0.0694727 0.0488257 0.0291189 0.0170358 0.0120660 0.0101492 0.0101744 0.0103548 9.82072e-003 8.59891e-003 7.36751e-003 6.29282e-003 6.20444e-003 6.00967e-003 5.69915e-003 5.43942e-003 5.33056e-003 6.58203e-003 7.82452e-003 0.0101569 0.0109890 9.89091e-003 8.27307e-003 6.75165e-003 6.07183e-003 5.65049e-003 
